svgs/sharp-solid/panel-ews.svg

<svg xmlns="http://www.w3.org/2000/svg" viewBox="0 0 512 512"><!--! Font Awesome Pro 6.6.0 by @fontawesome - https://fontawesome.com License - https://fontawesome.com/license (Commercial License) Copyright 2024 Fonticons, Inc. --><path d="M512 0L0 0 0 288l16 0c44.2 0 80 35.8 80 80l0 16c0 17.7 14.3 32 32 32s32-14.3 32-32l0-32-32 0 0-96 96 0 0 96-32 0 0 32c0 35.3-28.7 64-64 64s-64-28.7-64-64l0-16c0-26.5-21.5-48-48-48L0 320 0 512l512 0L512 0zM112 64l96 0 16 0 0 32-16 0-96 0L96 96l0-32 16 0zm192 0l96 0 16 0 0 32-16 0-96 0-16 0 0-32 16 0zM112 128l96 0 16 0 0 32-16 0-96 0-16 0 0-32 16 0zm192 0l96 0 16 0 0 32-16 0-96 0-16 0 0-32 16 0zM416 256l0 192-128 0 0-192 128 0z"/></svg>

<svg xmlns="http://www.w3.org/2000/svg" viewBox="0 0 512 512"><!--! Font Awesome Pro 6.4.0 by @fontawesome - https://fontawesome.com License - https://fontawesome.com/license (Commercial License) Copyright 2023 Fonticons, Inc. --><path d="M512 0H0V288H16c44.2 0 80 35.8 80 80v16c0 17.7 14.3 32 32 32s32-14.3 32-32V352H128V256h96v96H192v32c0 35.3-28.7 64-64 64s-64-28.7-64-64V368c0-26.5-21.5-48-48-48H0V512H512V0zM112 64h96 16V96H208 112 96V64h16zm192 0h96 16V96H400 304 288V64h16zM112 128h96 16v32H208 112 96V128h16zm192 0h96 16v32H400 304 288V128h16zM416 256V448H288V256H416z"/></svg>
